X:1
T:Christmas Eve
R:reel
M:4/4
L:1/8
K:G
GE|:DB,DE ~G2GA|~B2dB ABGA|BAGE DB,DE|GABG ABGE|
|DB,DE ~G2GA|~B2dB ABGA|BAGE DGBG|1 ABGF G2GE:|2 ABGF G2GA|]
|:BABd edeg|abge ~g2eg|~a2ge ~g2ge|dedB ~A2GA|
|BABd edeg|abge ~g2eg|~a2ge ~d2BG|1 ABGF G2GA:|2 ABGF G2dc|]
|:BG~G2 BGBd|eg~g2 egdc|BG~G2 DGBG|EAAG ~A2dc|
|BG~G2 BGBd|eg~g2 egdg|bgag egdB|1 ABGF G2dc:|2 ABGF G2GE|]